; generated by PrusaSlicer 2.1.1+win64 on 2020-11-22 at 16:04:29 UTC


;
;

;
;
; 

; external perimeters extrusion width = 0.45mm
; perimeters extrusion width = 0.45mm
; infill extrusion width = 0.45mm
; solid infill extrusion width = 0.45mm
; top infill extrusion width = 0.40mm
; first layer extrusion width = 0.42mm

M73 P0 R151
M201 X1250 Y1250 Z400 E5000 ; sets maximum accelerations, mm/sec^2
M203 X180 Y180 Z12 E80 ; sets maximum feedrates, mm/sec
M204 P1250 R1250 T1250 ; sets acceleration (P, T) and retract acceleration (R), mm/sec^2
M205 X8.00 Y8.00 Z2.00 E10.00 ; sets the jerk limits, mm/sec
M205 S0 T0 ; sets the minimum extruding and travel feed rate, mm/sec
M107
G90 ; use absolute coordinates
M83 ; extruder relative mode
M104 S170 ; set extruder temp for bed leveling
M140 S85 ; set bed temp
M109 R170 ; wait for bed leveling temp
M190 S85 ; wait for bed temp
G28 ; home all without mesh bed level
G29 ; mesh bed leveling 
M104 S240 ; set extruder temp
G92 E0.0
G1 Y-2.0 X179 F2400
G1 Z3 F720
M109 S240 ; wait for extruder temp

; intro line
G1 X170 F1000
G1 Z0.2 F720
G1 X110.0 E8.0 F900
M73 P0 R151
G1 X40.0 E10.0 F700
G92 E0.0

M221 S95 ; set flow
G21 ; set units to millimeters
G90 ; use absolute coordinates
M83 ; use relative distances for extrusion
M900 K0.2 ; Filament gcode
;BEFORE_LAYER_CHANGE
G92 E0.0
;0.2


G1 Z0.200 F9000.000
;AFTER_LAYER_CHANGE
;0.2
G1 E-3.20000 F2400.00000
G1 Z0.400 F9000.000
G1 X33.247 Y74.193
G1 Z0.200
G1 E3.20000 F1500.00000
M204 S800
G1 F1200
G1 X33.554 Y73.723 E0.01760
G1 X67.981 Y38.804 E1.53750
G1 X69.282 Y37.743 E0.05264
G1 X70.524 Y37.072 E0.04427
G1 X71.293 Y36.783 E0.02576
G1 X72.263 Y36.537 E0.03137
G1 X73.770 Y36.393 E0.04747
G1 X138.786 Y36.393 E2.03853
G1 X140.494 Y36.574 E0.05384
G1 X142.128 Y37.108 E0.05389
G1 X143.614 Y37.971 E0.05389
G1 X144.890 Y39.128 E0.05401
G1 X145.893 Y40.520 E0.05378
G1 X146.585 Y42.097 E0.05401
G1 X146.932 Y43.780 E0.05389
G1 X146.916 Y45.532 E0.05492
G1 X126.590 Y138.028 E2.96934
G1 X126.134 Y139.147 E0.03789
G1 X125.216 Y140.560 E0.05285
G1 X124.637 Y141.203 E0.02712
G1 X123.516 Y142.142 E0.04585
G1 X121.960 Y142.992 E0.05558
G1 X120.254 Y143.484 E0.05570
G1 X119.409 Y143.586 E0.02667
G1 X117.955 Y143.557 E0.04562
G1 X55.310 Y135.875 E1.97891
G1 X54.699 Y135.704 E0.01987
G1 X54.163 Y135.366 E0.01987
G1 X53.783 Y134.943 E0.01783
G1 X53.524 Y134.433 E0.01794
G1 X33.142 Y75.840 E1.94512
G1 X33.034 Y75.290 E0.01760
G1 X33.069 Y74.730 E0.01760
G1 X33.228 Y74.250 E0.01583
M204 S1250
G1 E-2.24000 F2400.00000
G1 F7200
G1 X33.554 Y73.723 E-0.19617
G1 X35.141 Y72.114 E-0.71583
G1 E-0.04800 F2400.00000
G1 Z0.400 F9000.000
G1 X54.655 Y125.201
G1 Z0.200
G1 E3.20000 F1500.00000
M204 S800
G1 F1200
G1 X59.542 Y123.501 E0.16223
G1 X61.734 Y129.805 E0.20926
G1 X56.848 Y131.505 E0.16223
G1 X54.674 Y125.258 E0.20738
M204 S1250
G1 X55.135 Y125.433 F9000.000
M204 S800
G1 F1200
G1 X59.309 Y123.981 E0.13859
G1 X61.254 Y129.573 E0.18562
G1 X57.080 Y131.025 E0.13859
G1 X55.155 Y125.490 E0.18374
M204 S1250
G1 X54.926 Y125.092 F9000.000
G1 E-2.24000 F2400.00000
G1 F7200
G1 X57.862 Y124.507 E-0.91200
G1 E-0.04800 F2400.00000
G1 Z0.400 F9000.000
G1 X37.570 Y76.088
G1 Z0.200
G1 E3.20000 F1500.00000
M204 S800
G1 F1200
G1 X42.457 Y74.388 E0.16223
G1 X44.650 Y80.691 E0.20926
G1 X39.763 Y82.391 E0.16223
G1 X37.590 Y76.144 E0.20738
M204 S1250
G1 X38.051 Y76.320 F9000.000
M204 S800
G1 F1200
G1 X42.225 Y74.868 E0.13859
G1 X44.170 Y80.459 E0.18562
G1 X39.996 Y81.911 E0.13859
G1 X38.070 Y76.377 E0.18374
M204 S1250
G1 X37.842 Y75.979 F9000.000
G1 E-2.24000 F2400.00000
G1 F7200
G1 X40.777 Y75.394 E-0.91200
G1 E-0.04800 F2400.00000
G1 Z0.400 F9000.000
G1 X116.557 Y133.950
G1 Z0.200
G1 E3.20000 F1500.00000
M204 S800
G1 F1200
G1 X116.876 Y133.543 E0.01620
G1 X117.267 Y133.205 E0.01621
G1 X117.716 Y132.946 E0.01626
G1 X118.211 Y132.776 E0.01641
G1 X118.715 Y132.704 E0.01594
G1 X119.231 Y132.728 E0.01621
G1 X119.733 Y132.850 E0.01620
G1 X120.203 Y133.065 E0.01620
G1 X120.624 Y133.365 E0.01621
G1 X120.981 Y133.739 E0.01620
G1 X121.260 Y134.174 E0.01621
G1 X121.452 Y134.653 E0.01620
G1 X121.550 Y135.161 E0.01620
G1 X121.550 Y135.678 E0.01621
G1 X121.452 Y136.185 E0.01620
G1 X121.260 Y136.665 E0.01621
G1 X120.981 Y137.100 E0.01620
G1 X120.624 Y137.474 E0.01620
G1 X120.203 Y137.774 E0.01621
G1 X119.733 Y137.988 E0.01620
G1 X119.231 Y138.110 E0.01620
G1 X118.715 Y138.135 E0.01621
G1 X118.203 Y138.061 E0.01620
G1 X117.715 Y137.892 E0.01620
G1 X117.267 Y137.634 E0.01620
G1 X116.876 Y137.295 E0.01621
G1 X116.557 Y136.889 E0.01620
G1 X116.320 Y136.430 E0.01620
G1 X116.175 Y135.934 E0.01620
G1 X116.125 Y135.419 E0.01620
G1 X116.175 Y134.905 E0.01621
G1 X116.320 Y134.409 E0.01620
G1 X116.529 Y134.003 E0.01432
M204 S1250
G1 X116.865 Y134.176 F9000.000
M204 S800
G1 F1200
G1 X117.151 Y133.805 E0.01469
G1 X117.487 Y133.513 E0.01395
G1 X117.873 Y133.290 E0.01398
G1 X118.300 Y133.144 E0.01415
G1 X118.733 Y133.082 E0.01370
G1 X119.177 Y133.103 E0.01395
G1 X119.609 Y133.208 E0.01395
G1 X120.014 Y133.393 E0.01395
G1 X120.376 Y133.651 E0.01395
G1 X120.683 Y133.973 E0.01395
G1 X120.924 Y134.347 E0.01395
G1 X121.089 Y134.760 E0.01395
G1 X121.173 Y135.197 E0.01395
G1 X121.173 Y135.642 E0.01395
G1 X121.089 Y136.078 E0.01395
G1 X120.924 Y136.491 E0.01395
G1 X120.683 Y136.866 E0.01395
G1 X120.376 Y137.188 E0.01395
G1 X120.014 Y137.446 E0.01395
G1 X119.609 Y137.630 E0.01395
G1 X119.177 Y137.735 E0.01395
G1 X118.733 Y137.756 E0.01395
G1 X118.292 Y137.693 E0.01395
G1 X117.872 Y137.548 E0.01395
G1 X117.487 Y137.325 E0.01395
G1 X117.151 Y137.034 E0.01395
G1 X116.876 Y136.684 E0.01395
G1 X116.672 Y136.289 E0.01395
G1 X116.546 Y135.862 E0.01395
G1 X116.504 Y135.419 E0.01395
G1 X116.546 Y134.977 E0.01395
G1 X116.672 Y134.550 E0.01395
G1 X116.837 Y134.229 E0.01131
M204 S1250
G1 X117.194 Y134.359 F9000.000
M204 S800
G1 F1200
G1 X117.425 Y134.066 E0.01169
G1 X117.706 Y133.822 E0.01169
G1 X118.030 Y133.635 E0.01170
G1 X118.389 Y133.513 E0.01189
G1 X118.751 Y133.461 E0.01147
G1 X119.123 Y133.478 E0.01169
G1 X119.485 Y133.566 E0.01169
G1 X119.824 Y133.721 E0.01169
G1 X120.128 Y133.937 E0.01169
G1 X120.385 Y134.207 E0.01169
G1 X120.587 Y134.521 E0.01169
G1 X120.725 Y134.867 E0.01169
G1 X120.796 Y135.233 E0.01169
G1 X120.796 Y135.606 E0.01169
G1 X120.725 Y135.972 E0.01169
G1 X120.587 Y136.318 E0.01169
G1 X120.385 Y136.631 E0.01169
G1 X120.128 Y136.901 E0.01169
G1 X119.824 Y137.118 E0.01169
G1 X119.485 Y137.272 E0.01169
G1 X119.123 Y137.360 E0.01169
G1 X118.751 Y137.378 E0.01169
G1 X118.382 Y137.325 E0.01169
G1 X118.029 Y137.203 E0.01169
G1 X117.706 Y137.017 E0.01169
G1 X117.425 Y136.773 E0.01169
G1 X117.194 Y136.479 E0.01169
G1 X117.023 Y136.148 E0.01169
G1 X116.918 Y135.790 E0.01169
G1 X116.883 Y135.419 E0.01169
G1 X116.918 Y135.048 E0.01169
G1 X117.023 Y134.690 E0.01169
G1 X117.167 Y134.412 E0.00981
M204 S1250
G1 X117.023 Y134.028 F9000.000
G1 E-2.24000 F2400.00000
G1 F7200
G1 X117.425 Y134.066 E-0.13676
G1 X117.706 Y133.822 E-0.11805
G1 X118.030 Y133.635 E-0.11818
G1 X118.389 Y133.513 E-0.12012
G1 X118.751 Y133.461 E-0.11582
G1 X119.123 Y133.478 E-0.11806
G1 X119.485 Y133.566 E-0.11805
G1 X119.678 Y133.654 E-0.06696
G1 E-0.04800 F2400.00000
G1 Z0.400 F9000.000
G1 X138.142 Y47.224
G1 Z0.200
G1 E3.20000 F1500.00000
M204 S800
G1 F1200
G1 X137.653 Y47.055 E0.01620
G1 X137.206 Y46.796 E0.01621
G1 X136.815 Y46.458 E0.01620
G1 X136.496 Y46.052 E0.01620
G1 X136.259 Y45.592 E0.01621
G1 X136.113 Y45.096 E0.01620
G1 X136.064 Y44.582 E0.01620
G1 X136.113 Y44.067 E0.01620
G1 X136.259 Y43.571 E0.01620
G1 X136.496 Y43.112 E0.01621
G1 X136.815 Y42.706 E0.01620
G1 X137.206 Y42.367 E0.01620
G1 X137.655 Y42.108 E0.01626
G1 X138.150 Y41.939 E0.01641
G1 X138.653 Y41.866 E0.01594
G1 X139.170 Y41.891 E0.01620
G1 X139.672 Y42.013 E0.01620
G1 X140.142 Y42.228 E0.01621
G1 X140.563 Y42.527 E0.01620
G1 X140.920 Y42.901 E0.01621
G1 X141.199 Y43.336 E0.01620
G1 X141.391 Y43.816 E0.01620
G1 X141.489 Y44.323 E0.01620
G1 X141.489 Y44.840 E0.01621
G1 X141.391 Y45.348 E0.01620
G1 X141.199 Y45.828 E0.01620
G1 X140.920 Y46.262 E0.01620
G1 X140.563 Y46.636 E0.01621
G1 X140.142 Y46.936 E0.01620
G1 X139.672 Y47.151 E0.01621
G1 X139.170 Y47.273 E0.01620
G1 X138.653 Y47.297 E0.01620
G1 X138.201 Y47.232 E0.01432
M204 S1250
G1 X138.255 Y46.859 F9000.000
M204 S800
G1 F1200
G1 X137.811 Y46.710 E0.01469
G1 X137.426 Y46.488 E0.01395
G1 X137.089 Y46.196 E0.01395
G1 X136.814 Y45.847 E0.01395
G1 X136.611 Y45.451 E0.01395
G1 X136.485 Y45.025 E0.01395
G1 X136.443 Y44.582 E0.01395
G1 X136.485 Y44.139 E0.01395
G1 X136.611 Y43.712 E0.01395
G1 X136.814 Y43.317 E0.01395
G1 X137.089 Y42.967 E0.01395
G1 X137.426 Y42.676 E0.01395
G1 X137.812 Y42.453 E0.01398
G1 X138.239 Y42.307 E0.01415
G1 X138.671 Y42.245 E0.01370
G1 X139.116 Y42.266 E0.01395
G1 X139.548 Y42.371 E0.01395
G1 X139.953 Y42.556 E0.01395
G1 X140.315 Y42.814 E0.01395
G1 X140.622 Y43.136 E0.01395
G1 X140.862 Y43.510 E0.01395
G1 X141.028 Y43.923 E0.01395
G1 X141.112 Y44.359 E0.01395
G1 X141.112 Y44.804 E0.01395
G1 X141.028 Y45.241 E0.01395
G1 X140.862 Y45.654 E0.01395
G1 X140.622 Y46.028 E0.01395
G1 X140.315 Y46.350 E0.01395
G1 X139.953 Y46.608 E0.01395
G1 X139.548 Y46.793 E0.01395
G1 X139.116 Y46.898 E0.01395
G1 X138.671 Y46.919 E0.01395
G1 X138.314 Y46.868 E0.01131
M204 S1250
G1 X138.320 Y46.488 F9000.000
M204 S800
G1 F1200
G1 X137.968 Y46.366 E0.01169
G1 X137.645 Y46.179 E0.01169
G1 X137.364 Y45.935 E0.01169
G1 X137.133 Y45.642 E0.01169
G1 X136.962 Y45.311 E0.01169
G1 X136.857 Y44.953 E0.01169
G1 X136.822 Y44.582 E0.01169
G1 X136.857 Y44.211 E0.01169
G1 X136.962 Y43.853 E0.01169
G1 X137.133 Y43.522 E0.01169
G1 X137.364 Y43.229 E0.01169
G1 X137.645 Y42.985 E0.01169
G1 X137.968 Y42.798 E0.01170
G1 X138.327 Y42.675 E0.01189
G1 X138.689 Y42.623 E0.01147
G1 X139.062 Y42.641 E0.01169
G1 X139.424 Y42.729 E0.01169
G1 X139.763 Y42.884 E0.01169
G1 X140.067 Y43.100 E0.01169
G1 X140.324 Y43.370 E0.01169
G1 X140.526 Y43.683 E0.01169
G1 X140.664 Y44.029 E0.01169
G1 X140.735 Y44.395 E0.01169
G1 X140.735 Y44.768 E0.01169
G1 X140.664 Y45.134 E0.01169
G1 X140.526 Y45.480 E0.01169
G1 X140.324 Y45.794 E0.01169
G1 X140.067 Y46.064 E0.01169
G1 X139.763 Y46.280 E0.01169
G1 X139.424 Y46.435 E0.01169
G1 X139.062 Y46.523 E0.01169
G1 X138.689 Y46.541 E0.01169
G1 X138.380 Y46.496 E0.00981
M204 S1250
G1 X138.063 Y46.757 F9000.000
G1 E-2.24000 F2400.00000
G1 F7200
G1 X137.968 Y46.366 E-0.13676
G1 X137.645 Y46.179 E-0.11806
G1 X137.364 Y45.935 E-0.11805
G1 X137.133 Y45.642 E-0.11805
G1 X136.962 Y45.311 E-0.11806
G1 X136.857 Y44.953 E-0.11805
G1 X136.822 Y44.582 E-0.11805
G1 X136.842 Y44.371 E-0.06692
G1 E-0.04800 F2400.00000
G1 Z0.400 F9000.000
G1 X76.489 Y44.840
G1 Z0.200
G1 E3.20000 F1500.00000
M204 S800
G1 F1200
G1 X76.391 Y45.348 E0.01620
G1 X76.199 Y45.828 E0.01620
G1 X75.920 Y46.262 E0.01620
G1 X75.563 Y46.636 E0.01620
G1 X75.142 Y46.936 E0.01620
G1 X74.672 Y47.151 E0.01620
G1 X74.170 Y47.273 E0.01620
G1 X73.653 Y47.297 E0.01620
G1 X73.142 Y47.224 E0.01620
G1 X72.653 Y47.055 E0.01620
G1 X72.206 Y46.796 E0.01620
G1 X71.815 Y46.458 E0.01620
G1 X71.496 Y46.052 E0.01620
G1 X71.259 Y45.592 E0.01620
G1 X71.113 Y45.096 E0.01620
G1 X71.064 Y44.582 E0.01620
G1 X71.113 Y44.067 E0.01620
G1 X71.259 Y43.571 E0.01620
G1 X71.496 Y43.112 E0.01620
G1 X71.815 Y42.706 E0.01620
G1 X72.206 Y42.367 E0.01620
G1 X72.655 Y42.108 E0.01626
G1 X73.150 Y41.939 E0.01641
G1 X73.653 Y41.866 E0.01594
G1 X74.170 Y41.891 E0.01620
G1 X74.672 Y42.013 E0.01620
G1 X75.142 Y42.228 E0.01620
G1 X75.563 Y42.527 E0.01620
G1 X75.920 Y42.901 E0.01620
G1 X76.199 Y43.336 E0.01620
G1 X76.391 Y43.816 E0.01620
G1 X76.489 Y44.323 E0.01620
G1 X76.489 Y44.780 E0.01432
M204 S1250
G1 X76.112 Y44.780 F9000.000
M204 S800
G1 F1200
G1 X76.028 Y45.241 E0.01469
G1 X75.862 Y45.654 E0.01395
G1 X75.622 Y46.028 E0.01395
G1 X75.315 Y46.350 E0.01395
G1 X74.953 Y46.608 E0.01395
G1 X74.548 Y46.793 E0.01395
G1 X74.116 Y46.898 E0.01395
G1 X73.671 Y46.919 E0.01395
G1 X73.231 Y46.856 E0.01395
G1 X72.811 Y46.710 E0.01395
G1 X72.426 Y46.488 E0.01395
G1 X72.089 Y46.196 E0.01395
G1 X71.814 Y45.847 E0.01395
G1 X71.611 Y45.451 E0.01395
G1 X71.485 Y45.025 E0.01395
G1 X71.443 Y44.582 E0.01395
G1 X71.485 Y44.139 E0.01395
G1 X71.611 Y43.712 E0.01395
G1 X71.814 Y43.317 E0.01395
G1 X72.089 Y42.967 E0.01395
G1 X72.426 Y42.676 E0.01395
G1 X72.812 Y42.453 E0.01398
G1 X73.239 Y42.307 E0.01415
G1 X73.671 Y42.245 E0.01370
G1 X74.116 Y42.266 E0.01395
G1 X74.548 Y42.371 E0.01395
G1 X74.953 Y42.556 E0.01395
G1 X75.315 Y42.814 E0.01395
G1 X75.622 Y43.136 E0.01395
G1 X75.862 Y43.510 E0.01395
G1 X76.028 Y43.923 E0.01395
G1 X76.112 Y44.359 E0.01395
G1 X76.112 Y44.720 E0.01131
M204 S1250
G1 X75.735 Y44.768 F9000.000
M204 S800
G1 F1200
G1 X75.664 Y45.134 E0.01169
G1 X75.526 Y45.480 E0.01169
G1 X75.324 Y45.794 E0.01169
G1 X75.067 Y46.064 E0.01169
G1 X74.763 Y46.280 E0.01169
G1 X74.424 Y46.435 E0.01169
G1 X74.062 Y46.523 E0.01169
G1 X73.689 Y46.541 E0.01169
G1 X73.320 Y46.488 E0.01169
G1 X72.968 Y46.366 E0.01169
G1 X72.645 Y46.179 E0.01169
G1 X72.364 Y45.935 E0.01169
G1 X72.133 Y45.642 E0.01169
G1 X71.962 Y45.311 E0.01169
G1 X71.857 Y44.953 E0.01169
G1 X71.822 Y44.582 E0.01169
G1 X71.857 Y44.211 E0.01169
G1 X71.962 Y43.853 E0.01169
G1 X72.133 Y43.522 E0.01169
G1 X72.364 Y43.229 E0.01169
G1 X72.645 Y42.985 E0.01169
G1 X72.968 Y42.798 E0.01170
G1 X73.327 Y42.675 E0.01189
G1 X73.689 Y42.623 E0.01147
G1 X74.062 Y42.641 E0.01169
G1 X74.424 Y42.729 E0.01169
G1 X74.763 Y42.884 E0.01169
G1 X75.067 Y43.100 E0.01169
G1 X75.324 Y43.370 E0.01169
G1 X75.526 Y43.683 E0.01169
G1 X75.664 Y44.029 E0.01169
G1 X75.735 Y44.395 E0.01169
G1 X75.735 Y44.708 E0.00981
M204 S1250
G1 X76.038 Y44.984 F9000.000
G1 E-2.24000 F2400.00000
G1 F7200
G1 X75.664 Y45.134 E-0.13676
G1 X75.526 Y45.480 E-0.11805
G1 X75.324 Y45.794 E-0.11805
G1 X75.067 Y46.064 E-0.11805
G1 X74.763 Y46.280 E-0.11805
G1 X74.424 Y46.435 E-0.11805
G1 X74.062 Y46.523 E-0.11805
G1 X73.851 Y46.533 E-0.06692
G1 E-0.04800 F2400.00000
G1 Z0.400 F9000.000
G1 X56.615 Y131.985
G1 Z0.200
G1 E3.20000 F1500.00000
M204 S800
G1 F1200
G1 X62.214 Y130.037 E0.18588
G1 X59.997 Y123.662 E0.21164
G1 X73.881 Y118.832 E0.46091
G1 X58.791 Y75.453 E1.44005
G1 X44.907 Y80.283 E0.46091
G1 X42.690 Y73.908 E0.21164
G1 X37.090 Y75.855 E0.18588
G1 X39.308 Y82.231 E0.21164
G1 X38.768 Y82.419 E0.01792
G1 X36.325 Y75.395 E0.23315
G1 X70.180 Y41.063 E1.51181
G1 X70.565 Y40.710 E0.01638
G1 X70.964 Y40.410 E0.01563
G1 X71.390 Y40.152 E0.01563
G1 X71.840 Y39.937 E0.01563
G1 X72.309 Y39.768 E0.01563
G1 X72.792 Y39.646 E0.01563
G1 X73.285 Y39.572 E0.01563
G1 X73.807 Y39.546 E0.01638
G1 X138.770 Y39.547 E2.03686
G1 X139.311 Y39.575 E0.01699
G1 X139.834 Y39.658 E0.01659
G1 X140.345 Y39.796 E0.01659
G1 X140.838 Y39.986 E0.01659
G1 X141.309 Y40.227 E0.01659
G1 X141.752 Y40.516 E0.01659
G1 X142.163 Y40.851 E0.01659
G1 X142.536 Y41.226 E0.01659
G1 X142.867 Y41.638 E0.01659
G1 X143.154 Y42.083 E0.01659
G1 X143.392 Y42.556 E0.01659
G1 X143.579 Y43.051 E0.01659
G1 X143.713 Y43.563 E0.01659
G1 X143.793 Y44.086 E0.01659
G1 X143.817 Y44.614 E0.01659
G1 X143.786 Y45.143 E0.01659
G1 X143.695 Y45.690 E0.01739
G1 X123.536 Y137.240 E2.93926
G1 X123.347 Y137.670 E0.01475
G1 X123.093 Y138.119 E0.01616
G1 X122.795 Y138.540 E0.01616
G1 X122.455 Y138.927 E0.01616
G1 X122.078 Y139.278 E0.01616
G1 X121.666 Y139.589 E0.01616
G1 X121.225 Y139.855 E0.01616
G1 X120.759 Y140.076 E0.01616
G1 X120.272 Y140.247 E0.01616
G1 X119.771 Y140.368 E0.01616
G1 X119.260 Y140.437 E0.01616
G1 X118.745 Y140.453 E0.01616
G1 X118.206 Y140.415 E0.01694
G1 X56.300 Y132.820 E1.95556
M73 P0 R150
G1 X53.858 Y125.797 E0.23313
G1 X54.398 Y125.610 E0.01792
G1 X56.596 Y131.928 E0.20976
M204 S1250
G1 E-2.24000 F2400.00000
G1 F7200
G1 X59.325 Y131.010 E-0.91200
G1 E-0.04800 F2400.00000
G1 Z0.400 F9000.000
G1 X73.401 Y118.600
G1 Z0.200
G1 E3.20000 F1500.00000
M204 S800
G1 F1200
G1 X58.559 Y75.933 E1.41640
G1 X38.536 Y82.899 E0.66471
G1 X35.892 Y75.298 E0.25233
G1 X69.918 Y40.792 E1.51946
G1 X70.324 Y40.419 E0.01726
G1 X70.752 Y40.098 E0.01680
G1 X71.211 Y39.820 E0.01680
