; generated by PrusaSlicer 2.1.1+win64 on 2020-11-22 at 13:10:15 UTC


;
;

;
;
; 

; external perimeters extrusion width = 0.45mm
; perimeters extrusion width = 0.45mm
; infill extrusion width = 0.45mm
; solid infill extrusion width = 0.45mm
; top infill extrusion width = 0.40mm
; first layer extrusion width = 0.42mm

M73 P0 R100
M201 X1250 Y1250 Z400 E5000 ; sets maximum accelerations, mm/sec^2
M203 X180 Y180 Z12 E80 ; sets maximum feedrates, mm/sec
M204 P1250 R1250 T1250 ; sets acceleration (P, T) and retract acceleration (R), mm/sec^2
M205 X8.00 Y8.00 Z2.00 E10.00 ; sets the jerk limits, mm/sec
M205 S0 T0 ; sets the minimum extruding and travel feed rate, mm/sec
M107
G90 ; use absolute coordinates
M83 ; extruder relative mode
M104 S170 ; set extruder temp for bed leveling
M140 S85 ; set bed temp
M109 R170 ; wait for bed leveling temp
M190 S85 ; wait for bed temp
G28 ; home all without mesh bed level
G29 ; mesh bed leveling 
M104 S240 ; set extruder temp
G92 E0.0
G1 Y-2.0 X179 F2400
G1 Z3 F720
M109 S240 ; wait for extruder temp

; intro line
G1 X170 F1000
G1 Z0.2 F720
G1 X110.0 E8.0 F900
M73 P0 R100
G1 X40.0 E10.0 F700
G92 E0.0

M221 S95 ; set flow
G21 ; set units to millimeters
G90 ; use absolute coordinates
M83 ; use relative distances for extrusion
M900 K0.2 ; Filament gcode
;BEFORE_LAYER_CHANGE
G92 E0.0
;0.2


G1 Z0.200 F9000.000
;AFTER_LAYER_CHANGE
;0.2
G1 E-3.20000 F2400.00000
G1 Z0.400 F9000.000
G1 X49.326 Y48.388
G1 Z0.200
G1 E3.20000 F1500.00000
M204 S800
G1 F1200
G1 X51.505 Y46.364 E0.09326
G1 X54.026 Y44.264 E0.10288
G1 X57.614 Y41.657 E0.13906
G1 X60.395 Y39.905 E0.10305
G1 X62.994 Y38.458 E0.09326
G1 X65.670 Y37.142 E0.09349
G1 X68.408 Y35.966 E0.09344
G1 X71.519 Y34.824 E0.10391
G1 X74.660 Y33.870 E0.10294
G1 X78.980 Y32.865 E0.13906
G1 X81.892 Y32.379 E0.09257
G1 X84.853 Y32.040 E0.09344
G1 X87.822 Y31.852 E0.09326
G1 X91.099 Y31.822 E0.10277
G1 X95.543 Y32.077 E0.13958
G1 X98.800 Y32.481 E0.10288
G1 X102.090 Y33.082 E0.10489
G1 X104.962 Y33.768 E0.09257
G1 X107.819 Y34.607 E0.09337
G1 X110.627 Y35.590 E0.09327
G1 X113.656 Y36.837 E0.10271
G1 X117.646 Y38.799 E0.13940
G1 X120.490 Y40.439 E0.10294
G1 X122.983 Y42.062 E0.09326
G1 X125.395 Y43.814 E0.09349
G1 X127.687 Y45.665 E0.09235
G1 X130.958 Y48.668 E0.13923
G1 X133.218 Y51.037 E0.10265
G1 X135.152 Y53.296 E0.09326
G1 X136.973 Y55.657 E0.09349
G1 X138.655 Y58.084 E0.09258
G1 X140.943 Y61.881 E0.13901
G1 X142.448 Y64.798 E0.10288
G1 X143.801 Y67.833 E0.10420
G1 X144.863 Y70.611 E0.09326
G1 X145.784 Y73.445 E0.09344
G1 X146.557 Y76.317 E0.09326
G1 X147.241 Y79.542 E0.10334
G1 X147.747 Y82.845 E0.10477
G1 X148.058 Y86.113 E0.10294
G1 X148.186 Y90.546 E0.13906
G1 X148.062 Y93.838 E0.10328
G1 X147.790 Y96.800 E0.09326
G1 X147.366 Y99.751 E0.09349
G1 X146.797 Y102.649 E0.09258
G1 X145.669 Y106.934 E0.13895
G1 X144.626 Y110.047 E0.10294
G1 X143.395 Y113.126 E0.10397
G1 X142.141 Y115.831 E0.09349
G1 X140.750 Y118.467 E0.09344
G1 X139.229 Y121.023 E0.09326
G1 X137.400 Y123.751 E0.10299
G1 X134.691 Y127.264 E0.13906
G1 X132.519 Y129.725 E0.10294
G1 X130.433 Y131.846 E0.09326
G1 X128.237 Y133.862 E0.09349
G1 X125.968 Y135.741 E0.09235
G1 X122.375 Y138.350 E0.13923
G1 X119.605 Y140.095 E0.10265
G1 X117.000 Y141.545 E0.09349
G1 X114.020 Y143.000 E0.10397
G1 X111.273 Y144.161 E0.09349
G1 X108.472 Y145.179 E0.09344
G1 X105.333 Y146.132 E0.10288
G1 X101.013 Y147.137 E0.13906
G1 X97.769 Y147.668 E0.10305
G1 X94.812 Y147.989 E0.09326
G1 X91.835 Y148.160 E0.09349
G1 X88.861 Y148.177 E0.09327
G1 X85.545 Y148.018 E0.10408
G1 X82.280 Y147.674 E0.10294
G1 X77.910 Y146.918 E0.13906
G1 X74.708 Y146.143 E0.10328
G1 X71.859 Y145.288 E0.09326
G1 X69.051 Y144.287 E0.09349
G1 X66.307 Y143.147 E0.09316
G1 X63.312 Y141.707 E0.10420
G1 X60.438 Y140.119 E0.10294
G1 X56.706 Y137.722 E0.13906
G1 X54.329 Y135.972 E0.09257
G1 X52.023 Y134.087 E0.09338
G1 X49.819 Y132.088 E0.09332
G1 X47.515 Y129.761 E0.10265
G1 X44.606 Y126.404 E0.13929
G1 X42.822 Y124.060 E0.09234
G1 X41.140 Y121.600 E0.09344
G1 X39.590 Y119.064 E0.09320
G1 X38.031 Y116.174 E0.10294
G1 X36.184 Y112.128 E0.13946
G1 X35.024 Y109.067 E0.10265
G1 X34.121 Y106.232 E0.09326
G1 X33.363 Y103.349 E0.09349
G1 X32.759 Y100.458 E0.09258
G1 X32.253 Y97.155 E0.10477
G1 X31.942 Y93.887 E0.10294
G1 X31.814 Y89.454 E0.13906
G1 X31.917 Y86.503 E0.09257
G1 X32.172 Y83.534 E0.09344
G1 X32.578 Y80.587 E0.09326
G1 X33.201 Y77.358 E0.10311
G1 X34.329 Y73.069 E0.13906
G1 X35.371 Y69.960 E0.10282
G1 X36.470 Y67.188 E0.09349
G1 X37.856 Y64.175 E0.10397
G1 X39.247 Y61.538 E0.09349
G1 X40.771 Y58.977 E0.09344
G1 X42.594 Y56.258 E0.10265
G1 X45.306 Y52.739 E0.13929
G1 X47.249 Y50.525 E0.09234
G1 X49.284 Y48.431 E0.09156
M204 S1250
G1 E-2.24000 F2400.00000
G1 F7200
G1 X51.392 Y46.469 E-0.91200
G1 E-0.04800 F2400.00000
G1 Z0.400 F9000.000
G1 X87.359 Y130.648
G1 Z0.200
G1 E3.20000 F1500.00000
M204 S800
G1 F1200
G1 X93.034 Y130.648 E0.17795
G1 X93.034 Y136.428 E0.18124
G1 X90.095 Y143.417 E0.23771
G1 X87.359 Y136.909 E0.22136
G1 X87.359 Y130.708 E0.19443
M204 S1250
G1 X87.331 Y130.249 F9000.000
G1 E-2.24000 F2400.00000
G1 F7200
G1 X90.239 Y130.677 E-0.91200
G1 E-0.04800 F2400.00000
G1 Z0.400 F9000.000
G1 X39.422 Y108.094
G1 Z0.200
G1 E3.20000 F1500.00000
M204 S800
G1 F1200
G1 X39.165 Y108.138 E0.00819
G1 X39.381 Y108.016 E0.00780
G1 X39.394 Y108.041 E0.00089
M204 S1250
G1 X39.534 Y107.496 F9000.000
M204 S800
G1 F1200
G1 X39.866 Y108.128 E0.02238
G1 X40.026 Y108.372 E0.00917
G1 X38.662 Y108.607 E0.04339
G1 X37.832 Y108.681 E0.02615
G1 X37.789 Y108.561 E0.00399
G1 X37.985 Y108.419 E0.00757
G1 X38.479 Y108.093 E0.01857
G1 X39.482 Y107.525 E0.03614
M204 S1250
G1 E-2.24000 F2400.00000
G1 F7200
G1 X39.866 Y108.128 E-0.22621
G1 X40.026 Y108.372 E-0.09266
G1 X38.662 Y108.607 E-0.43825
G1 X38.175 Y108.651 E-0.15488
G1 E-0.04800 F2400.00000
G1 Z0.400 F9000.000
G1 X38.493 Y105.174
G1 Z0.200
G1 E3.20000 F1500.00000
M204 S800
G1 F1200
G1 X38.212 Y105.206 E0.00886
G1 X38.483 Y105.073 E0.00947
G1 X38.487 Y105.115 E0.00132
M204 S1250
G1 X38.889 Y105.352 F9000.000
M204 S800
G1 F1200
G1 X38.919 Y105.505 E0.00492
G1 X37.684 Y105.646 E0.03899
G1 X36.850 Y105.672 E0.02615
G1 X36.815 Y105.550 E0.00399
G1 X37.530 Y105.122 E0.02614
G1 X38.818 Y104.488 E0.04501
G1 X38.883 Y105.292 E0.02530
M204 S1250
G1 X39.259 Y105.255 F9000.000
M204 S800
G1 F1200
G1 X39.195 Y104.597 E0.02075
G1 X39.195 Y103.893 E0.02206
G1 X39.263 Y103.193 E0.02206
G1 X39.398 Y102.502 E0.02206
G1 X39.599 Y101.828 E0.02206
G1 X39.864 Y101.177 E0.02206
G1 X40.191 Y100.554 E0.02206
G1 X40.577 Y99.965 E0.02206
G1 X41.017 Y99.416 E0.02206
G1 X41.509 Y98.913 E0.02206
G1 X42.047 Y98.459 E0.02206
G1 X42.626 Y98.060 E0.02206
G1 X43.240 Y97.718 E0.02206
G1 X43.885 Y97.437 E0.02206
G1 X44.555 Y97.219 E0.02206
G1 X45.242 Y97.068 E0.02206
G1 X45.940 Y96.983 E0.02206
G1 X46.626 Y96.966 E0.02152
G1 X47.345 Y97.017 E0.02259
G1 X48.039 Y97.135 E0.02207
G1 X48.717 Y97.320 E0.02206
G1 X49.375 Y97.569 E0.02206
G1 X50.006 Y97.881 E0.02206
G1 X50.604 Y98.252 E0.02206
G1 X51.163 Y98.680 E0.02206
G1 X51.678 Y99.159 E0.02206
G1 X52.145 Y99.685 E0.02206
G1 X52.558 Y100.255 E0.02206
G1 X52.915 Y100.861 E0.02206
G1 X53.211 Y101.499 E0.02206
G1 X53.445 Y102.163 E0.02206
G1 X53.613 Y102.846 E0.02206
G1 X53.715 Y103.542 E0.02206
G1 X53.749 Y104.245 E0.02206
G1 X53.715 Y104.948 E0.02206
G1 X53.613 Y105.644 E0.02206
G1 X53.445 Y106.327 E0.02206
G1 X53.211 Y106.991 E0.02206
G1 X52.915 Y107.629 E0.02206
G1 X52.558 Y108.235 E0.02206
G1 X52.145 Y108.804 E0.02206
G1 X51.678 Y109.331 E0.02206
G1 X51.163 Y109.810 E0.02206
G1 X50.604 Y110.237 E0.02206
G1 X50.006 Y110.609 E0.02206
G1 X49.375 Y110.920 E0.02206
G1 X48.718 Y111.170 E0.02206
G1 X48.039 Y111.355 E0.02206
G1 X47.345 Y111.473 E0.02206
G1 X46.643 Y111.524 E0.02206
G1 X45.940 Y111.507 E0.02206
G1 X45.242 Y111.422 E0.02206
G1 X44.555 Y111.270 E0.02206
G1 X43.885 Y111.053 E0.02206
G1 X43.240 Y110.772 E0.02206
G1 X42.626 Y110.430 E0.02206
G1 X42.047 Y110.030 E0.02206
G1 X41.509 Y109.577 E0.02206
G1 X41.017 Y109.073 E0.02206
G1 X40.577 Y108.525 E0.02206
G1 X40.191 Y107.936 E0.02206
G1 X39.864 Y107.313 E0.02206
G1 X39.599 Y106.662 E0.02206
G1 X39.398 Y105.987 E0.02206
G1 X39.266 Y105.315 E0.02149
M204 S1250
G1 X38.887 Y105.107 F9000.000
G1 E-2.24000 F2400.00000
G1 F7200
G1 X39.195 Y104.597 E-0.22855
G1 X39.195 Y103.893 E-0.22280
G1 X39.263 Y103.193 E-0.22279
G1 X39.398 Y102.502 E-0.22280
G1 X39.411 Y102.457 E-0.01506
G1 E-0.04800 F2400.00000
G1 Z0.400 F9000.000
G1 X57.162 Y47.489
G1 Z0.200
G1 E3.20000 F1500.00000
M204 S800
G1 F1200
G1 X57.041 Y47.258 E0.00819
G1 X57.224 Y47.426 E0.00780
G1 X57.204 Y47.446 E0.00089
M204 S1250
G1 X57.766 Y47.411 F9000.000
M204 S800
G1 F1200
G1 X57.267 Y47.921 E0.02238
G1 X57.084 Y48.149 E0.00917
G1 X56.439 Y46.925 E0.04339
G1 X56.113 Y46.159 E0.02609
G1 X56.214 Y46.081 E0.00402
G1 X56.408 Y46.222 E0.00753
G1 X56.872 Y46.591 E0.01857
G1 X57.722 Y47.370 E0.03614
M204 S1250
G1 E-2.24000 F2400.00000
G1 F7200
G1 X57.267 Y47.921 E-0.22621
G1 X57.084 Y48.149 E-0.09266
G1 X56.439 Y46.925 E-0.43825
G1 X56.247 Y46.475 E-0.15488
G1 E-0.04800 F2400.00000
G1 Z0.400 F9000.000
G1 X59.652 Y45.703
G1 Z0.200
G1 E3.20000 F1500.00000
M204 S800
G1 F1200
G1 X59.535 Y45.446 E0.00886
G1 X59.745 Y45.662 E0.00947
G1 X59.707 Y45.679 E0.00132
M204 S1250
G1 X59.606 Y46.134 F9000.000
M204 S800
G1 F1200
G1 X59.469 Y46.211 E0.00492
G1 X58.953 Y45.079 E0.03899
G1 X58.671 Y44.296 E0.02609
G1 X58.777 Y44.224 E0.00401
G1 X59.404 Y44.771 E0.02609
G1 X60.405 Y45.799 E0.04501
G1 X59.661 Y46.110 E0.02530
M204 S1250
G1 X59.811 Y46.456 F9000.000
M204 S800
G1 F1200
G1 X60.418 Y46.192 E0.02075
G1 X61.087 Y45.974 E0.02206
G1 X61.774 Y45.823 E0.02206
G1 X62.473 Y45.738 E0.02206
G1 X63.159 Y45.721 E0.02152
G1 X63.877 Y45.772 E0.02259
G1 X64.571 Y45.890 E0.02207
G1 X65.250 Y46.075 E0.02206
G1 X65.908 Y46.325 E0.02206
G1 X66.539 Y46.636 E0.02206
G1 X67.136 Y47.008 E0.02206
G1 X67.695 Y47.435 E0.02206
G1 X68.211 Y47.914 E0.02206
G1 X68.677 Y48.441 E0.02206
G1 X69.091 Y49.010 E0.02206
G1 X69.447 Y49.616 E0.02206
G1 X69.744 Y50.254 E0.02206
G1 X69.977 Y50.918 E0.02206
G1 X70.146 Y51.601 E0.02206
G1 X70.247 Y52.297 E0.02206
G1 X70.281 Y53.000 E0.02206
G1 X70.247 Y53.703 E0.02206
G1 X70.146 Y54.399 E0.02206
G1 X69.977 Y55.082 E0.02206
G1 X69.744 Y55.746 E0.02206
G1 X69.447 Y56.384 E0.02206
G1 X69.091 Y56.990 E0.02206
G1 X68.677 Y57.559 E0.02206
G1 X68.211 Y58.086 E0.02206
G1 X67.695 Y58.565 E0.02206
G1 X67.136 Y58.992 E0.02206
G1 X66.539 Y59.364 E0.02206
G1 X65.908 Y59.675 E0.02206
G1 X65.250 Y59.925 E0.02206
G1 X64.571 Y60.110 E0.02206
G1 X63.878 Y60.228 E0.02206
G1 X63.176 Y60.279 E0.02206
G1 X62.473 Y60.262 E0.02206
G1 X61.774 Y60.177 E0.02206
G1 X61.087 Y60.026 E0.02206
G1 X60.418 Y59.808 E0.02206
G1 X59.773 Y59.527 E0.02206
G1 X59.158 Y59.185 E0.02206
G1 X58.579 Y58.786 E0.02206
G1 X58.041 Y58.332 E0.02206
G1 X57.550 Y57.828 E0.02206
G1 X57.109 Y57.280 E0.02206
G1 X56.724 Y56.691 E0.02206
G1 X56.397 Y56.068 E0.02206
G1 X56.131 Y55.417 E0.02206
G1 X55.930 Y54.743 E0.02206
G1 X55.795 Y54.052 E0.02206
G1 X55.727 Y53.352 E0.02206
G1 X55.727 Y52.648 E0.02206
G1 X55.795 Y51.948 E0.02206
G1 X55.930 Y51.257 E0.02206
G1 X56.131 Y50.583 E0.02206
G1 X56.397 Y49.932 E0.02206
G1 X56.724 Y49.309 E0.02206
G1 X57.109 Y48.720 E0.02206
G1 X57.550 Y48.172 E0.02206
G1 X58.041 Y47.668 E0.02206
G1 X58.579 Y47.214 E0.02206
G1 X59.158 Y46.815 E0.02206
G1 X59.757 Y46.482 E0.02149
M204 S1250
G1 X59.838 Y46.057 F9000.000
G1 E-2.24000 F2400.00000
G1 F7200
G1 X60.418 Y46.192 E-0.22855
G1 X61.087 Y45.974 E-0.22280
G1 X61.774 Y45.823 E-0.22280
G1 X62.473 Y45.738 E-0.22280
G1 X62.520 Y45.737 E-0.01506
G1 E-0.04800 F2400.00000
G1 Z0.400 F9000.000
G1 X98.272 Y101.197
G1 Z0.200
G1 E3.20000 F1500.00000
M204 S800
G1 F1200
G1 X98.861 Y100.783 E0.02255
G1 X99.855 Y100.166 E0.03668
G1 X100.861 Y99.625 E0.03582
G1 X101.897 Y99.145 E0.03581
G1 X102.960 Y98.728 E0.03581
G1 X104.020 Y98.384 E0.03493
G1 X105.152 Y98.088 E0.03668
G1 X106.273 Y97.868 E0.03582
G1 X107.404 Y97.715 E0.03581
G1 X108.543 Y97.629 E0.03581
G1 X109.657 Y97.613 E0.03493
G1 X110.826 Y97.664 E0.03668
G1 X111.962 Y97.783 E0.03582
G1 X113.089 Y97.971 E0.03581
G1 X114.202 Y98.225 E0.03581
G1 X115.271 Y98.537 E0.03493
G1 X116.373 Y98.931 E0.03668
G1 X117.423 Y99.380 E0.03582
G1 X118.445 Y99.891 E0.03581
G1 X119.434 Y100.462 E0.03581
G1 X120.363 Y101.076 E0.03493
G1 X121.300 Y101.776 E0.03668
G1 X122.171 Y102.515 E0.03582
G1 X122.997 Y103.305 E0.03581
G1 X123.773 Y104.142 E0.03581
G1 X124.481 Y105.002 E0.03493
G1 X125.169 Y105.948 E0.03668
G1 X125.784 Y106.911 E0.03582
G1 X126.340 Y107.908 E0.03581
G1 X126.836 Y108.937 E0.03581
G1 X127.258 Y109.968 E0.03493
G1 X127.637 Y111.075 E0.03668
G1 X127.941 Y112.176 E0.03582
G1 X128.178 Y113.293 E0.03581
G1 X128.348 Y114.423 E0.03581
G1 X128.448 Y115.532 E0.03493
G1 X128.484 Y116.701 E0.03668
G1 X128.450 Y117.843 E0.03582
G1 X128.350 Y118.953 E0.03493
G1 X128.177 Y120.110 E0.03668
G1 X127.939 Y121.227 E0.03582
G1 X127.635 Y122.328 E0.03581
G1 X127.266 Y123.409 E0.03581
G1 X126.843 Y124.439 E0.03493
G1 X126.337 Y125.494 E0.03668
G1 X125.780 Y126.491 E0.03582
G1 X125.165 Y127.454 E0.03581
G1 X124.493 Y128.377 E0.03581
G1 X123.786 Y129.238 E0.03493
G1 X122.991 Y130.096 E0.03668
G1 X122.165 Y130.885 E0.03582
G1 X121.315 Y131.606 E0.03493
G1 X120.380 Y132.308 E0.03668
G1 X119.426 Y132.937 E0.03582
G1 X118.437 Y133.508 E0.03581
G1 X117.416 Y134.019 E0.03581
G1 X116.391 Y134.457 E0.03493
G1 X115.290 Y134.852 E0.03668
G1 X114.194 Y135.172 E0.03582
G1 X113.080 Y135.426 E0.03581
G1 X111.954 Y135.613 E0.03581
G1 X110.846 Y135.729 E0.03493
G1 X109.677 Y135.783 E0.03668
G1 X108.535 Y135.765 E0.03582
G1 X107.424 Y135.682 E0.03493
G1 X106.265 Y135.526 E0.03668
G1 X105.144 Y135.305 E0.03582
G1 X104.039 Y135.017 E0.03581
G1 X102.953 Y134.664 E0.03581
G1 X101.916 Y134.257 E0.03493
G1 X100.859 Y133.769 E0.03650
G1 X99.853 Y133.227 E0.03582
G1 X98.881 Y132.627 E0.03581
G1 X97.947 Y131.970 E0.03581
G1 X97.077 Y131.275 E0.03493
G1 X96.206 Y130.494 E0.03668
G1 X95.404 Y129.680 E0.03582
G1 X94.672 Y128.841 E0.03493
G1 X93.955 Y127.917 E0.03668
G1 X93.311 Y126.973 E0.03582
G1 X92.725 Y125.992 E0.03581
G1 X92.199 Y124.978 E0.03581
G1 X91.746 Y123.961 E0.03493
G1 X91.334 Y122.866 E0.03668
G1 X90.997 Y121.774 E0.03582
G1 X90.726 Y120.665 E0.03581
G1 X90.523 Y119.541 E0.03581
G1 X90.390 Y118.435 E0.03493
G1 X90.318 Y117.268 E0.03668
G1 X90.318 Y116.125 E0.03582
G1 X90.385 Y115.013 E0.03493
G1 X90.523 Y113.852 E0.03668
G1 X90.727 Y112.728 E0.03582
G1 X90.998 Y111.618 E0.03581
G1 X91.335 Y110.527 E0.03581
G1 X91.726 Y109.484 E0.03493
G1 X92.200 Y108.415 E0.03668
G1 X92.727 Y107.401 E0.03582
G1 X93.313 Y106.420 E0.03581
G1 X93.956 Y105.477 E0.03581
G1 X94.637 Y104.596 E0.03493
G1 X95.406 Y103.714 E0.03668
G1 X96.208 Y102.900 E0.03582
G1 X97.057 Y102.136 E0.03581
G1 X97.950 Y101.424 E0.03581
G1 X98.223 Y101.231 E0.01049
M204 S1250
G1 X98.440 Y101.540 F9000.000
M204 S800
G1 F1200
G1 X99.069 Y101.097 E0.02409
G1 X100.044 Y100.493 E0.03597
G1 X101.030 Y99.963 E0.03511
G1 X102.046 Y99.492 E0.03510
G1 X103.088 Y99.083 E0.03510
G1 X104.126 Y98.746 E0.03423
G1 X105.236 Y98.456 E0.03597
G1 X106.334 Y98.240 E0.03511
G1 X107.444 Y98.090 E0.03510
G1 X108.560 Y98.006 E0.03510
G1 X109.652 Y97.990 E0.03423
G1 X110.798 Y98.040 E0.03597
G1 X111.911 Y98.157 E0.03511
G1 X113.016 Y98.341 E0.03510
G1 X114.107 Y98.590 E0.03510
G1 X115.155 Y98.896 E0.03423
G1 X116.235 Y99.282 E0.03597
G1 X117.265 Y99.722 E0.03511
G1 X118.266 Y100.223 E0.03510
G1 X119.235 Y100.783 E0.03510
G1 X120.146 Y101.384 E0.03423
G1 X121.065 Y102.071 E0.03597
G1 X121.919 Y102.796 E0.03511
G1 X122.728 Y103.569 E0.03510
G1 X123.489 Y104.390 E0.03510
G1 X124.183 Y105.233 E0.03423
G1 X124.858 Y106.161 E0.03597
G1 X125.460 Y107.104 E0.03511
G1 X126.005 Y108.082 E0.03510
G1 X126.491 Y109.091 E0.03510
G1 X126.905 Y110.101 E0.03423
G1 X127.277 Y111.186 E0.03597
G1 X127.575 Y112.266 E0.03511
G1 X127.807 Y113.361 E0.03510
G1 X127.974 Y114.468 E0.03510
G1 X128.071 Y115.555 E0.03423
G1 X128.107 Y116.702 E0.03597
