; generated by PrusaSlicer 2.1.1+win64 on 2020-11-22 at 14:59:28 UTC


;
;

;
;
; 

; external perimeters extrusion width = 0.45mm
; perimeters extrusion width = 0.45mm
; infill extrusion width = 0.45mm
; solid infill extrusion width = 0.45mm
; top infill extrusion width = 0.40mm
; first layer extrusion width = 0.42mm

M73 P0 R88
M201 X1250 Y1250 Z400 E5000 ; sets maximum accelerations, mm/sec^2
M203 X180 Y180 Z12 E80 ; sets maximum feedrates, mm/sec
M204 P1250 R1250 T1250 ; sets acceleration (P, T) and retract acceleration (R), mm/sec^2
M205 X8.00 Y8.00 Z2.00 E10.00 ; sets the jerk limits, mm/sec
M205 S0 T0 ; sets the minimum extruding and travel feed rate, mm/sec
M107
G90 ; use absolute coordinates
M83 ; extruder relative mode
M104 S170 ; set extruder temp for bed leveling
M140 S85 ; set bed temp
M109 R170 ; wait for bed leveling temp
M190 S85 ; wait for bed temp
G28 ; home all without mesh bed level
G29 ; mesh bed leveling 
M104 S240 ; set extruder temp
G92 E0.0
G1 Y-2.0 X179 F2400
G1 Z3 F720
M109 S240 ; wait for extruder temp

; intro line
G1 X170 F1000
G1 Z0.2 F720
G1 X110.0 E8.0 F900
M73 P0 R88
G1 X40.0 E10.0 F700
G92 E0.0

M221 S95 ; set flow
G21 ; set units to millimeters
G90 ; use absolute coordinates
M83 ; use relative distances for extrusion
M900 K0.2 ; Filament gcode
;BEFORE_LAYER_CHANGE
G92 E0.0
;0.2


G1 Z0.200 F9000.000
;AFTER_LAYER_CHANGE
;0.2
G1 E-3.20000 F2400.00000
G1 Z0.400 F9000.000
G1 X56.956 Y47.207
G1 Z0.200
G1 E3.20000 F1500.00000
M204 S800
G1 F1200
G1 X57.398 Y46.498 E0.02620
G1 X60.535 Y43.364 E0.13902
G1 X61.142 Y42.976 E0.02259
G1 X61.842 Y42.807 E0.02259
G1 X118.004 Y42.801 E1.76091
G1 X118.813 Y42.958 E0.02586
G1 X119.507 Y43.403 E0.02586
G1 X122.669 Y46.574 E0.14039
G1 X123.005 Y47.111 E0.01987
G1 X123.172 Y47.719 E0.01976
G1 X123.182 Y84.161 E1.14263
G1 X123.096 Y84.620 E0.01464
G1 X111.865 Y121.719 E1.21536
G1 X110.919 Y124.002 E0.07747
G1 X110.358 Y125.095 E0.03853
G1 X108.667 Y127.757 E0.09887
G1 X106.810 Y129.972 E0.09063
G1 X105.961 Y130.819 E0.03761
G1 X103.760 Y132.665 E0.09007
G1 X101.080 Y134.368 E0.09955
G1 X100.055 Y134.895 E0.03612
G1 X97.720 Y135.865 E0.07930
G1 X96.554 Y136.240 E0.03841
G1 X93.472 Y136.927 E0.09899
G1 X90.593 Y137.180 E0.09063
G1 X89.393 Y137.179 E0.03761
G1 X86.528 Y136.927 E0.09018
G1 X83.429 Y136.236 E0.09956
G1 X82.281 Y135.865 E0.03784
G1 X79.998 Y134.919 E0.07747
G1 X78.905 Y134.358 E0.03853
G1 X76.243 Y132.667 E0.09887
G1 X74.039 Y130.819 E0.09017
G1 X73.181 Y129.961 E0.03807
G1 X71.346 Y127.774 E0.08950
G1 X69.642 Y125.095 E0.09955
G1 X69.256 Y124.364 E0.02592
G1 X67.889 Y120.988 E0.11420
G1 X56.896 Y84.591 E1.19214
G1 X56.811 Y83.995 E0.01885
G1 X56.811 Y47.986 E1.12906
G1 X56.945 Y47.266 E0.02296
M204 S1250
G1 E-2.24000 F2400.00000
G1 F7200
G1 X57.398 Y46.498 E-0.28233
G1 X58.805 Y45.092 E-0.62967
G1 E-0.04800 F2400.00000
G1 Z0.400 F9000.000
G1 X88.229 Y110.932
G1 Z0.200
G1 E3.20000 F1500.00000
M204 S800
G1 F1200
G1 X88.744 Y110.688 E0.01787
G1 X89.291 Y110.529 E0.01787
G1 X89.852 Y110.461 E0.01769
G1 X90.426 Y110.483 E0.01803
G1 X90.986 Y110.598 E0.01790
G1 X91.519 Y110.800 E0.01787
G1 X92.012 Y111.085 E0.01787
G1 X92.454 Y111.445 E0.01787
G1 X92.832 Y111.872 E0.01787
G1 X93.137 Y112.354 E0.01787
G1 X93.360 Y112.878 E0.01787
G1 X93.496 Y113.432 E0.01787
G1 X93.542 Y114.000 E0.01787
G1 X93.496 Y114.568 E0.01787
G1 X93.360 Y115.122 E0.01787
G1 X93.139 Y115.641 E0.01769
G1 X92.832 Y116.127 E0.01803
G1 X92.454 Y116.555 E0.01790
G1 X92.012 Y116.915 E0.01787
G1 X91.519 Y117.200 E0.01787
G1 X90.986 Y117.402 E0.01787
G1 X90.427 Y117.516 E0.01787
G1 X89.857 Y117.539 E0.01787
G1 X89.291 Y117.471 E0.01787
G1 X88.744 Y117.312 E0.01787
G1 X88.229 Y117.068 E0.01787
G1 X87.760 Y116.744 E0.01787
G1 X87.349 Y116.349 E0.01787
G1 X87.006 Y115.893 E0.01787
G1 X86.741 Y115.388 E0.01787
G1 X86.561 Y114.848 E0.01787
G1 X86.469 Y114.285 E0.01787
G1 X86.469 Y113.715 E0.01787
G1 X86.561 Y113.152 E0.01787
G1 X86.739 Y112.617 E0.01769
G1 X87.006 Y112.107 E0.01803
G1 X87.349 Y111.651 E0.01790
G1 X87.760 Y111.256 E0.01787
G1 X88.179 Y110.966 E0.01599
M204 S1250
G1 X88.394 Y111.277 F9000.000
M204 S800
G1 F1200
G1 X88.878 Y111.042 E0.01688
G1 X89.367 Y110.900 E0.01597
G1 X89.867 Y110.839 E0.01580
G1 X90.381 Y110.859 E0.01612
G1 X90.880 Y110.961 E0.01598
G1 X91.356 Y111.141 E0.01597
G1 X91.797 Y111.396 E0.01597
G1 X92.192 Y111.718 E0.01597
G1 X92.529 Y112.099 E0.01597
G1 X92.802 Y112.530 E0.01597
G1 X93.001 Y112.998 E0.01597
G1 X93.123 Y113.492 E0.01597
G1 X93.164 Y114.000 E0.01597
G1 X93.123 Y114.508 E0.01597
G1 X93.001 Y115.002 E0.01597
G1 X92.804 Y115.465 E0.01580
G1 X92.530 Y115.900 E0.01612
G1 X92.192 Y116.282 E0.01598
G1 X91.797 Y116.604 E0.01597
G1 X91.356 Y116.859 E0.01597
G1 X90.880 Y117.039 E0.01597
G1 X90.381 Y117.141 E0.01597
G1 X89.873 Y117.161 E0.01597
G1 X89.367 Y117.100 E0.01597
G1 X88.878 Y116.958 E0.01597
G1 X88.418 Y116.740 E0.01597
G1 X87.999 Y116.451 E0.01597
G1 X87.632 Y116.098 E0.01597
G1 X87.326 Y115.691 E0.01597
G1 X87.089 Y115.240 E0.01597
G1 X86.928 Y114.757 E0.01597
G1 X86.846 Y114.255 E0.01597
G1 X86.846 Y113.745 E0.01597
G1 X86.928 Y113.243 E0.01597
G1 X87.087 Y112.765 E0.01580
G1 X87.325 Y112.309 E0.01612
G1 X87.632 Y111.902 E0.01598
G1 X87.999 Y111.549 E0.01597
G1 X88.344 Y111.311 E0.01316
M204 S1250
G1 X88.559 Y111.621 F9000.000
M204 S800
G1 F1200
G1 X89.012 Y111.395 E0.01589
G1 X89.443 Y111.271 E0.01406
G1 X89.883 Y111.217 E0.01390
G1 X90.336 Y111.235 E0.01421
G1 X90.775 Y111.324 E0.01406
G1 X91.194 Y111.483 E0.01406
G1 X91.582 Y111.707 E0.01406
G1 X91.930 Y111.991 E0.01406
G1 X92.227 Y112.327 E0.01406
G1 X92.467 Y112.705 E0.01406
G1 X92.642 Y113.118 E0.01406
G1 X92.750 Y113.553 E0.01406
G1 X92.786 Y114.000 E0.01406
G1 X92.750 Y114.447 E0.01406
G1 X92.642 Y114.882 E0.01406
G1 X92.469 Y115.290 E0.01390
G1 X92.227 Y115.673 E0.01421
G1 X91.930 Y116.009 E0.01406
G1 X91.582 Y116.293 E0.01406
G1 X91.194 Y116.517 E0.01406
G1 X90.775 Y116.676 E0.01406
G1 X90.336 Y116.765 E0.01406
G1 X89.888 Y116.783 E0.01406
G1 X89.443 Y116.729 E0.01406
G1 X89.012 Y116.605 E0.01406
G1 X88.607 Y116.412 E0.01406
G1 X88.238 Y116.158 E0.01406
G1 X87.915 Y115.847 E0.01406
G1 X87.646 Y115.489 E0.01406
G1 X87.437 Y115.092 E0.01406
G1 X87.295 Y114.667 E0.01406
G1 X87.223 Y114.224 E0.01406
G1 X87.223 Y113.776 E0.01406
G1 X87.295 Y113.333 E0.01406
G1 X87.436 Y112.913 E0.01390
G1 X87.645 Y112.511 E0.01421
G1 X87.915 Y112.153 E0.01406
G1 X88.238 Y111.842 E0.01406
G1 X88.509 Y111.655 E0.01032
M204 S1250
G1 X88.553 Y111.221 F9000.000
G1 E-2.24000 F2400.00000
G1 F7200
G1 X89.012 Y111.395 E-0.17930
G1 X89.443 Y111.271 E-0.14196
G1 X89.883 Y111.217 E-0.14036
G1 X90.336 Y111.235 E-0.14349
G1 X90.775 Y111.324 E-0.14203
G1 X91.194 Y111.483 E-0.14196
G1 X91.257 Y111.519 E-0.02290
G1 E-0.04800 F2400.00000
G1 Z0.400 F9000.000
G1 X79.520 Y99.575
G1 Z0.200
G1 E3.20000 F1500.00000
M204 S800
G1 F1200
G1 X81.905 Y98.113 E0.08773
G1 X84.490 Y97.043 E0.08773
G1 X87.211 Y96.389 E0.08773
G1 X90.000 Y96.170 E0.08772
G1 X92.789 Y96.389 E0.08773
G1 X95.510 Y97.043 E0.08772
G1 X98.095 Y98.113 E0.08773
G1 X100.480 Y99.575 E0.08773
G1 X102.608 Y101.392 E0.08773
G1 X104.425 Y103.520 E0.08773
G1 X105.887 Y105.905 E0.08772
G1 X106.957 Y108.490 E0.08773
G1 X107.611 Y111.211 E0.08773
G1 X107.830 Y114.000 E0.08772
G1 X107.611 Y116.789 E0.08772
G1 X106.957 Y119.510 E0.08773
G1 X105.887 Y122.095 E0.08773
G1 X104.425 Y124.480 E0.08773
G1 X102.608 Y126.608 E0.08773
G1 X100.480 Y128.425 E0.08773
G1 X98.095 Y129.887 E0.08773
G1 X95.510 Y130.957 E0.08773
G1 X92.789 Y131.611 E0.08773
G1 X90.000 Y131.830 E0.08772
G1 X87.211 Y131.611 E0.08772
G1 X84.490 Y130.957 E0.08773
G1 X81.905 Y129.887 E0.08773
G1 X79.520 Y128.425 E0.08773
G1 X77.392 Y126.608 E0.08773
G1 X75.575 Y124.480 E0.08772
G1 X74.113 Y122.095 E0.08773
G1 X73.043 Y119.510 E0.08773
G1 X72.389 Y116.789 E0.08773
G1 X72.170 Y114.000 E0.08772
G1 X72.389 Y111.211 E0.08773
G1 X73.043 Y108.490 E0.08773
G1 X74.113 Y105.905 E0.08773
G1 X75.575 Y103.520 E0.08773
G1 X77.392 Y101.392 E0.08773
G1 X79.474 Y99.614 E0.08584
M204 S1250
G1 X79.123 Y99.418 F9000.000
M204 S800
G1 F1200
G1 X78.401 Y98.511 E0.03634
G1 X78.279 Y98.310 E0.00738
G1 X78.017 Y97.705 E0.02066
G1 X77.960 Y97.518 E0.00613
G1 X78.045 Y97.456 E0.00328
G1 X78.211 Y97.572 E0.00635
G1 X78.569 Y97.874 E0.01469
G1 X78.774 Y98.086 E0.00925
G1 X79.501 Y99.144 E0.04026
G1 X81.538 Y97.896 E0.07490
G1 X80.967 Y96.888 E0.03634
G1 X80.878 Y96.670 E0.00738
G1 X80.714 Y96.031 E0.02066
G1 X80.687 Y95.841 E0.00602
G1 X80.783 Y95.792 E0.00335
G1 X80.921 Y95.926 E0.00602
G1 X81.341 Y96.433 E0.02066
G1 X81.465 Y96.634 E0.00738
G1 X81.945 Y97.688 E0.03634
G1 X84.162 Y96.770 E0.07521
G1 X83.755 Y95.685 E0.03634
G1 X83.701 Y95.456 E0.00738
G1 X83.639 Y94.800 E0.02066
G1 X83.643 Y94.608 E0.00602
G1 X83.745 Y94.575 E0.00335
G1 X83.860 Y94.728 E0.00602
G1 X84.196 Y95.295 E0.02066
G1 X84.287 Y95.512 E0.00738
G1 X84.596 Y96.629 E0.03634
G1 X86.929 Y96.069 E0.07521
G1 X86.697 Y94.934 E0.03634
G1 X86.680 Y94.699 E0.00738
G1 X86.721 Y94.041 E0.02066
G1 X86.755 Y93.852 E0.00602
G1 X86.860 Y93.835 E0.00335
G1 X86.951 Y94.005 E0.00602
G1 X87.193 Y94.617 E0.02066
G1 X87.249 Y94.846 E0.00738
G1 X87.380 Y95.998 E0.03634
G1 X89.772 Y95.810 E0.07521
G1 X89.720 Y94.652 E0.03634
G1 X89.740 Y94.417 E0.00738
G1 X89.884 Y93.774 E0.02066
G1 X89.948 Y93.589 E0.00612
G1 X90.052 Y93.589 E0.00328
G1 X90.118 Y93.780 E0.00635
G1 X90.230 Y94.235 E0.01469
G1 X90.272 Y94.527 E0.00925
G1 X90.238 Y95.810 E0.04026
G1 X92.620 Y95.998 E0.07490
G1 X92.751 Y94.846 E0.03634
G1 X92.807 Y94.617 E0.00738
G1 X93.049 Y94.005 E0.02066
G1 X93.141 Y93.832 E0.00613
G1 X93.245 Y93.848 E0.00328
G1 X93.280 Y94.047 E0.00635
G1 X93.319 Y94.514 E0.01469
G1 X93.315 Y94.809 E0.00925
G1 X93.081 Y96.072 E0.04026
G1 X95.404 Y96.629 E0.07490
G1 X95.713 Y95.512 E0.03634
G1 X95.804 Y95.295 E0.00738
G1 X96.140 Y94.728 E0.02066
G1 X96.255 Y94.575 E0.00602
G1 X96.357 Y94.608 E0.00335
G1 X96.361 Y94.800 E0.00602
G1 X96.299 Y95.456 E0.02066
G1 X96.245 Y95.685 E0.00738
G1 X95.838 Y96.770 E0.03634
G1 X98.055 Y97.688 E0.07521
G1 X98.535 Y96.634 E0.03634
G1 X98.659 Y96.433 E0.00738
G1 X99.079 Y95.926 E0.02066
G1 X99.217 Y95.792 E0.00602
G1 X99.313 Y95.841 E0.00335
G1 X99.286 Y96.031 E0.00602
G1 X99.122 Y96.670 E0.02066
G1 X99.033 Y96.887 E0.00738
G1 X98.462 Y97.896 E0.03634
G1 X100.507 Y99.149 E0.07521
G1 X101.146 Y98.183 E0.03634
G1 X101.300 Y98.004 E0.00738
G1 X101.795 Y97.568 E0.02066
G1 X101.952 Y97.458 E0.00602
G1 X102.039 Y97.521 E0.00335
G1 X101.983 Y97.705 E0.00602
G1 X101.721 Y98.310 E0.02066
G1 X101.599 Y98.511 E0.00738
G1 X100.877 Y99.418 E0.03634
G1 X102.701 Y100.976 E0.07521
G1 X103.484 Y100.121 E0.03634
G1 X103.663 Y99.969 E0.00738
G1 X104.220 Y99.616 E0.02066
G1 X104.396 Y99.530 E0.00613
G1 X104.470 Y99.604 E0.00328
G1 X104.381 Y99.786 E0.00635
G1 X104.139 Y100.187 E0.01470
G1 X103.962 Y100.423 E0.00925
G1 X103.031 Y101.307 E0.04026
G1 X104.576 Y103.116 E0.07459
G1 X105.594 Y102.334 E0.04026
G1 X105.855 Y102.196 E0.00925
G1 X106.289 Y102.019 E0.01469
G1 X106.483 Y101.960 E0.00635
G1 X106.543 Y102.045 E0.00328
G1 X106.432 Y102.205 E0.00613
G1 X105.996 Y102.700 E0.02066
G1 X105.818 Y102.853 E0.00738
G1 X104.851 Y103.493 E0.03634
G1 X106.104 Y105.538 E0.07521
G1 X107.112 Y104.967 E0.03634
G1 X107.330 Y104.878 E0.00738
G1 X107.969 Y104.714 E0.02066
G1 X108.159 Y104.687 E0.00602
G1 X108.208 Y104.783 E0.00335
G1 X108.074 Y104.921 E0.00602
G1 X107.567 Y105.341 E0.02066
G1 X107.366 Y105.465 E0.00738
G1 X106.312 Y105.945 E0.03634
G1 X107.230 Y108.162 E0.07521
G1 X108.315 Y107.755 E0.03634
G1 X108.544 Y107.701 E0.00738
G1 X109.200 Y107.639 E0.02066
G1 X109.392 Y107.643 E0.00602
G1 X109.425 Y107.745 E0.00335
G1 X109.272 Y107.860 E0.00602
G1 X108.705 Y108.196 E0.02066
G1 X108.488 Y108.287 E0.00738
G1 X107.371 Y108.596 E0.03634
G1 X107.931 Y110.929 E0.07521
G1 X109.066 Y110.697 E0.03634
G1 X109.301 Y110.680 E0.00738
G1 X109.959 Y110.721 E0.02066
G1 X110.148 Y110.755 E0.00602
G1 X110.165 Y110.860 E0.00335
G1 X109.995 Y110.951 E0.00602
G1 X109.383 Y111.193 E0.02066
G1 X109.154 Y111.249 E0.00738
G1 X108.002 Y111.380 E0.03634
G1 X108.190 Y113.772 E0.07521
G1 X109.348 Y113.720 E0.03634
G1 X109.583 Y113.740 E0.00738
G1 X110.226 Y113.884 E0.02066
G1 X110.411 Y113.948 E0.00613
G1 X110.412 Y114.052 E0.00328
G1 X110.220 Y114.118 E0.00635
G1 X109.765 Y114.230 E0.01469
G1 X109.473 Y114.272 E0.00925
G1 X108.190 Y114.238 E0.04026
G1 X108.003 Y116.610 E0.07459
G1 X109.276 Y116.777 E0.04026
G1 X109.558 Y116.865 E0.00925
G1 X109.990 Y117.046 E0.01469
G1 X110.168 Y117.142 E0.00635
G1 X110.151 Y117.245 E0.00328
G1 X109.959 Y117.279 E0.00613
G1 X109.301 Y117.320 E0.02066
G1 X109.066 Y117.303 E0.00738
G1 X107.931 Y117.071 E0.03634
G1 X107.371 Y119.404 E0.07521
G1 X108.488 Y119.713 E0.03634
G1 X108.705 Y119.804 E0.00738
G1 X109.272 Y120.140 E0.02066
G1 X109.425 Y120.255 E0.00602
G1 X109.392 Y120.357 E0.00335
G1 X109.200 Y120.361 E0.00602
G1 X108.544 Y120.299 E0.02066
G1 X108.315 Y120.245 E0.00738
G1 X107.230 Y119.838 E0.03634
G1 X106.312 Y122.055 E0.07521
G1 X107.366 Y122.535 E0.03634
G1 X107.567 Y122.659 E0.00738
G1 X108.074 Y123.079 E0.02066
G1 X108.208 Y123.217 E0.00602
G1 X108.159 Y123.313 E0.00335
G1 X107.969 Y123.286 E0.00602
G1 X107.330 Y123.122 E0.02066
G1 X107.113 Y123.033 E0.00738
G1 X106.104 Y122.462 E0.03634
G1 X104.851 Y124.507 E0.07521
G1 X105.817 Y125.146 E0.03634
G1 X105.996 Y125.300 E0.00738
G1 X106.432 Y125.795 E0.02066
G1 X106.542 Y125.952 E0.00602
G1 X106.479 Y126.039 E0.00335
G1 X106.295 Y125.983 E0.00602
G1 X105.690 Y125.721 E0.02066
G1 X105.489 Y125.599 E0.00738
G1 X104.582 Y124.877 E0.03634
G1 X103.024 Y126.701 E0.07521
G1 X103.879 Y127.484 E0.03634
G1 X104.031 Y127.663 E0.00738
G1 X104.384 Y128.220 E0.02066
G1 X104.470 Y128.396 E0.00613
G1 X104.396 Y128.470 E0.00328
G1 X104.214 Y128.381 E0.00635
G1 X103.813 Y128.139 E0.01470
G1 X103.577 Y127.962 E0.00925
G1 X102.693 Y127.031 E0.04026
G1 X100.877 Y128.582 E0.07490
G1 X101.599 Y129.489 E0.03634
G1 X101.721 Y129.690 E0.00738
G1 X101.983 Y130.295 E0.02066
G1 X102.040 Y130.482 E0.00613
G1 X101.955 Y130.544 E0.00328
G1 X101.789 Y130.428 E0.00635
G1 X101.431 Y130.126 E0.01469
G1 X101.226 Y129.914 E0.00925
G1 X100.499 Y128.856 E0.04026
G1 X98.462 Y130.104 E0.07490
G1 X99.033 Y131.112 E0.03634
G1 X99.122 Y131.330 E0.00738
G1 X99.286 Y131.969 E0.02066
G1 X99.313 Y132.159 E0.00602
G1 X99.217 Y132.208 E0.00335
G1 X99.079 Y132.074 E0.00602
G1 X98.659 Y131.567 E0.02066
G1 X98.535 Y131.366 E0.00738
G1 X98.055 Y130.312 E0.03634
G1 X95.838 Y131.230 E0.07521
G1 X96.245 Y132.315 E0.03634
G1 X96.299 Y132.544 E0.00738
G1 X96.361 Y133.200 E0.02066
G1 X96.357 Y133.392 E0.00602
G1 X96.255 Y133.425 E0.00335
G1 X96.140 Y133.272 E0.00602
G1 X95.804 Y132.705 E0.02066
G1 X95.713 Y132.488 E0.00738
G1 X95.404 Y131.371 E0.03634
G1 X93.071 Y131.931 E0.07521
G1 X93.303 Y133.066 E0.03634
G1 X93.320 Y133.301 E0.00738
G1 X93.279 Y133.959 E0.02066
G1 X93.245 Y134.148 E0.00602
G1 X93.140 Y134.165 E0.00335
G1 X93.049 Y133.995 E0.00602
G1 X92.807 Y133.383 E0.02066
G1 X92.751 Y133.154 E0.00738
G1 X92.620 Y132.002 E0.03634
G1 X90.228 Y132.190 E0.07521
G1 X90.280 Y133.348 E0.03634
G1 X90.260 Y133.583 E0.00738
G1 X90.116 Y134.226 E0.02066
G1 X90.052 Y134.411 E0.00613
G1 X89.948 Y134.412 E0.00328
G1 X89.882 Y134.220 E0.00635
G1 X89.770 Y133.765 E0.01469
G1 X89.728 Y133.473 E0.00925
G1 X89.762 Y132.190 E0.04026
G1 X87.390 Y132.003 E0.07459
G1 X87.223 Y133.276 E0.04026
G1 X87.135 Y133.558 E0.00925
G1 X86.954 Y133.990 E0.01469
G1 X86.858 Y134.168 E0.00635
G1 X86.755 Y134.151 E0.00328
G1 X86.721 Y133.959 E0.00613
G1 X86.680 Y133.301 E0.02066
G1 X86.697 Y133.066 E0.00738
G1 X86.929 Y131.931 E0.03634
G1 X84.596 Y131.371 E0.07521
G1 X84.287 Y132.488 E0.03634
G1 X84.196 Y132.705 E0.00738
G1 X83.860 Y133.272 E0.02066
G1 X83.745 Y133.425 E0.00602
G1 X83.643 Y133.392 E0.00335
G1 X83.639 Y133.200 E0.00602
G1 X83.701 Y132.544 E0.02066
G1 X83.755 Y132.315 E0.00738
G1 X84.162 Y131.230 E0.03634
G1 X81.945 Y130.312 E0.07521
G1 X81.465 Y131.366 E0.03634
